digital/Imbassy-X-Files/65ef0811cc67439994568a45/65ef0811cc67439994569011_HubSpot_Logo 1.svg

<svg fill="none" height="36" viewBox="0 0 124 36" width="124" xmlns="http://www.w3.org/2000/svg" xmlns:xlink="http://www.w3.org/1999/xlink"><clipPath id="a"><path d="m0 0h124v36h-124z"/></clipPath><g clip-path="url(#a)" fill="#fff"><path d="m13.4294 5.77344v9.84196h-9.10812v-9.84196h-4.32128v23.49406h4.32245v-9.5226h9.10585v9.5226h4.3236v-23.49406zm18.1578 15.90036c0 .9417-.3768 1.8448-1.0475 2.5107-.6708.6659-1.5806 1.04-2.5292 1.04s-1.8583-.3741-2.5291-1.04c-.6707-.6659-1.0476-1.569-1.0476-2.5107v-10.0637h-4.1001v10.0637c0 2.0192.808 3.9557 2.2462 5.3835 1.4383 1.4278 3.389 2.2299 5.423 2.2299 2.0341 0 3.9848-.8021 5.423-2.2299 1.4383-1.4278 2.2463-3.3643 2.2463-5.3835v-10.0637h-4.085zm30.3812-9.0267c0-2.0636 1.3745-2.7174 2.8801-2.7174 1.2143 0 2.8169.9174 3.8662 2.0299l2.6847-3.14242c-1.3406-1.8-4.0592-3.04374-6.2854-3.04374-4.4488 0-7.6657 2.58619-7.6657 6.87366 0 7.9549 9.7936 5.4302 9.7936 9.8826 0 1.3726-1.3429 2.585-2.88 2.585-2.4251 0-3.2112-1.1764-4.3248-2.4213l-2.9807 3.0763c1.9068 2.3226 4.2581 3.5024 7.0738 3.5024 4.2266 0 7.626-2.6175 7.626-6.7099 0-8.8304-9.7948-6.0863-9.7948-9.9151m60.5966 12.8671c-2.423 0-3.112-1.0405-3.112-2.6338v-7.0548h3.767v-3.5745h-3.767v-4.71598l-4.158 1.85225v14.36983c0 3.6755 2.555 5.5277 6.058 5.5277.55.0093 1.099-.0348 1.64-.13l1.014-3.7069c-.457.0314-.983.0627-1.442.0627m-75.3631-13.7833c-2.0308 0-3.4486.5853-4.8197 1.9196v-7.73305h-4.106v14.33385c0 5.3651 3.9072 9.0418 8.2986 9.0418 4.8711 0 9.1562-3.7417 9.1562-8.7794 0-4.975-3.9435-8.7793-8.5291-8.7793m-.0258 13.4558c-.6119 0-1.2179-.1196-1.7832-.3521-.5654-.2325-1.0791-.5732-1.5118-1.0028-.4328-.4296-.776-.9395-1.0102-1.5008-.2342-.5612-.3547-1.1628-.3547-1.7703s.1205-1.209.3547-1.7703c.2342-.5612.5774-1.0712 1.0102-1.5007.4327-.4296.9464-.7704 1.5118-1.0028.5653-.2325 1.1713-.3522 1.7832-.3522 1.2359 0 2.4212.4874 3.2951 1.355.8739.8675 1.3649 2.0441 1.3649 3.271s-.491 2.4036-1.3649 3.2711-2.0592 1.3549-3.2951 1.3549zm44.619-4.8902c0-5.0469-4.2757-8.7793-9.1561-8.7793-4.3903 0-8.2987 3.6755-8.2987 9.0418v14.3419h4.1061v-7.7435c1.3686 1.332 2.7888 1.9197 4.8172 1.9197 4.5857 0 8.5303-3.8044 8.5303-8.7806m-3.8873-.0511c0 1.2269-.4909 2.4036-1.3648 3.2711-.8739.8676-2.0592 1.3549-3.2951 1.3549s-2.4212-.4873-3.2951-1.3549c-.8739-.8675-1.3649-2.0442-1.3649-3.2711s.491-2.4035 1.3649-3.271c.8739-.8676 2.0592-1.355 3.2951-1.355s2.4212.4874 3.2951 1.355c.8739.8675 1.3648 2.0441 1.3648 3.271z"/><path d="m105.056 11.321v-4.09588c.545-.25296 1.007-.65445 1.331-1.15773.325-.50329.498-1.08766.501-1.6851v-.09407c0-1.74193-1.422-3.15406-3.177-3.15406h-.095c-.843 0-1.651.3323-2.247.9238-.595.5915-.93 1.39375-.93 2.23026v.09407c.003.59744.176 1.18181.501 1.6851.324.50328.786.90477 1.331 1.15773v4.09588c-1.567.2382-3.043.8832-4.2782 1.8697l-11.3156-8.74919c.0808-.28916.1229-.58645.1276-.8849.0013-.70292-.2073-1.39047-.5996-1.97566s-.9506-1.041743-1.6043-1.311908c-.6537-.27016358-1.3734-.3418011-2.0681-.2058506-.6947.1359506-1.3332.4733816-1.8347.9696086-.5015.49623-.8435 1.12896-.9827 1.81817-.1392.6892-.0694 1.40391.2006 2.05372.27.64982.7281 1.20554 1.3163 1.59687.5882.39134 1.2801.60071 1.9881.60163.6195-.0029 1.2274-.16707 1.763-.47613l11.1424 8.60744c-1.001 1.5012-1.5232 3.2669-1.4986 5.067.0247 1.8001.595 3.551 1.6366 5.0247l-3.3889 3.3654c-.2739-.087-.5594-.1332-.8469-.1371-.5813.0005-1.1493.172-1.6324.4928-.4831.3209-.8595.7767-1.0817 1.3098-.2222.5332-.2802 1.1198-.1667 1.6857s.3934 1.0856.8044 1.4936.9346.6859 1.5046.7986 1.1609.0551 1.698-.1655.9962-.5943 1.3194-1.0739c.3232-.4795.496-1.0434.4964-1.6204-.0037-.2855-.0503-.5689-.138-.8408l3.3527-3.3294c1.0933.8355 2.3643 1.4116 3.7173 1.684 1.352.2724 2.749.2339 4.084-.1124 1.335-.3464 2.572-.9915 3.617-1.886 1.045-.8944 1.87-2.0144 2.411-3.2742.542-1.2597.786-2.6259.713-3.9937-.072-1.3678-.459-2.701-1.131-3.8975-.671-1.1964-1.61-2.2244-2.743-3.0051-1.134-.7808-2.433-1.2936-3.797-1.4991zm-1.39 13.471c-.619.0169-1.236-.0896-1.813-.3133-.578-.2237-1.104-.5601-1.549-.9892-.4438-.429-.7969-.9422-1.0381-1.509-.2411-.5669-.3654-1.176-.3654-1.7913s.1243-1.2244.3654-1.7913c.2412-.5669.5943-1.08 1.0381-1.5091.445-.429.971-.7654 1.549-.9891.577-.2237 1.194-.3302 1.813-.3133 1.201.0418 2.339.5445 3.174 1.4025.835.8579 1.302 2.004 1.302 3.1969.001 1.1929-.465 2.3394-1.299 3.1982s-1.971 1.3627-3.172 1.4056"/></g></svg>

<svg width="124" height="36" viewBox="0 0 124 36" fill="none" xmlns="http://www.w3.org/2000/svg">
<g clip-path="url(#clip0_1094_7884)">
<path d="M13.4294 5.77344V15.6154H4.32128V5.77344H0V29.2675H4.32245V19.7449H13.4283V29.2675H17.7519V5.77344H13.4294ZM31.5872 21.6738C31.5872 22.6155 31.2104 23.5186 30.5397 24.1845C29.8689 24.8504 28.9591 25.2245 28.0105 25.2245C27.0619 25.2245 26.1522 24.8504 25.4814 24.1845C24.8107 23.5186 24.4338 22.6155 24.4338 21.6738V11.6101H20.3337V21.6738C20.3337 23.693 21.1417 25.6295 22.5799 27.0573C24.0182 28.4851 25.9689 29.2872 28.0029 29.2872C30.037 29.2872 31.9877 28.4851 33.4259 27.0573C34.8642 25.6295 35.6722 23.693 35.6722 21.6738V11.6101H31.5872V21.6738ZM61.9684 12.6471C61.9684 10.5835 63.3429 9.9297 64.8485 9.9297C66.0628 9.9297 67.6654 10.8471 68.7147 11.9596L71.3994 8.81718C70.0588 7.01718 67.3402 5.77344 65.114 5.77344C60.6652 5.77344 57.4483 8.35963 57.4483 12.6471C57.4483 20.602 67.2419 18.0773 67.2419 22.5297C67.2419 23.9023 65.899 25.1147 64.3619 25.1147C61.9368 25.1147 61.1507 23.9383 60.0371 22.6934L57.0564 25.7697C58.9632 28.0923 61.3145 29.2721 64.1302 29.2721C68.3568 29.2721 71.7562 26.6546 71.7562 22.5622C71.7562 13.7318 61.9614 16.4759 61.9614 12.6471M122.558 25.5142C120.135 25.5142 119.446 24.4737 119.446 22.8804V15.8256H123.213V12.2511H119.446V7.53512L115.288 9.38737V23.7572C115.288 27.4327 117.843 29.2849 121.346 29.2849C121.896 29.2942 122.445 29.2501 122.986 29.1549L124 25.448C123.543 25.4794 123.017 25.5107 122.558 25.5107M47.1949 11.7274C45.1641 11.7274 43.7463 12.3127 42.3752 13.647V5.91395H38.2692V20.2478C38.2692 25.6129 42.1764 29.2896 46.5678 29.2896C51.4389 29.2896 55.724 25.5479 55.724 20.5102C55.724 15.5352 51.7805 11.7309 47.1949 11.7309M47.1691 25.1867C46.5572 25.1867 45.9512 25.0671 45.3859 24.8346C44.8205 24.6021 44.3068 24.2614 43.8741 23.8318C43.4413 23.4022 43.0981 22.8923 42.8639 22.331C42.6297 21.7698 42.5092 21.1682 42.5092 20.5607C42.5092 19.9532 42.6297 19.3517 42.8639 18.7904C43.0981 18.2292 43.4413 17.7192 43.8741 17.2897C44.3068 16.8601 44.8205 16.5193 45.3859 16.2869C45.9512 16.0544 46.5572 15.9347 47.1691 15.9347C48.405 15.9347 49.5903 16.4221 50.4642 17.2897C51.3381 18.1572 51.8291 19.3338 51.8291 20.5607C51.8291 21.7876 51.3381 22.9643 50.4642 23.8318C49.5903 24.6993 48.405 25.1867 47.1691 25.1867ZM91.7881 20.2965C91.7881 15.2496 87.5124 11.5172 82.632 11.5172C78.2417 11.5172 74.3333 15.1927 74.3333 20.559V34.9009H78.4394V27.1574C79.808 28.4894 81.2282 29.0771 83.2566 29.0771C87.8423 29.0771 91.7869 25.2727 91.7869 20.2965M87.8996 20.2454C87.8996 21.4723 87.4087 22.649 86.5348 23.5165C85.6609 24.3841 84.4756 24.8714 83.2397 24.8714C82.0038 24.8714 80.8185 24.3841 79.9446 23.5165C79.0707 22.649 78.5797 21.4723 78.5797 20.2454C78.5797 19.0185 79.0707 17.8419 79.9446 16.9744C80.8185 16.1068 82.0038 15.6194 83.2397 15.6194C84.4756 15.6194 85.6609 16.1068 86.5348 16.9744C87.4087 17.8419 87.8996 19.0185 87.8996 20.2454Z" fill="white"/>
<path d="M105.056 11.321V7.22512C105.601 6.97216 106.063 6.57067 106.387 6.06739C106.712 5.5641 106.885 4.97973 106.888 4.38229V4.28822C106.888 2.54629 105.466 1.13416 103.711 1.13416H103.616C102.773 1.13416 101.965 1.46646 101.369 2.05796C100.774 2.64946 100.439 3.45171 100.439 4.28822V4.38229C100.442 4.97973 100.615 5.5641 100.94 6.06739C101.264 6.57067 101.726 6.97216 102.271 7.22512V11.321C100.704 11.5592 99.228 12.2042 97.9928 13.1907L86.6772 4.44151C86.758 4.15235 86.8001 3.85506 86.8048 3.55661C86.8061 2.85369 86.5975 2.16614 86.2052 1.58095C85.8129 0.99576 85.2546 0.539207 84.6009 0.269042C83.9472 -0.00112158 83.2275 -0.0727591 82.5328 0.0631914C81.8381 0.199142 81.1996 0.536573 80.6981 1.0328C80.1966 1.52903 79.8546 2.16176 79.7154 2.85097C79.5762 3.54017 79.646 4.25488 79.916 4.90469C80.186 5.55451 80.6441 6.11023 81.2323 6.50156C81.8205 6.8929 82.5124 7.10227 83.2204 7.10319C83.8399 7.10029 84.4478 6.93612 84.9834 6.62706L96.1258 15.2345C95.1248 16.7357 94.6026 18.5014 94.6272 20.3015C94.6519 22.1016 95.2222 23.8525 96.2638 25.3262L92.8749 28.6916C92.601 28.6046 92.3155 28.5584 92.028 28.5545C91.4467 28.555 90.8787 28.7265 90.3956 29.0473C89.9125 29.3682 89.5361 29.824 89.3139 30.3571C89.0917 30.8903 89.0337 31.4769 89.1472 32.0428C89.2607 32.6087 89.5406 33.1284 89.9516 33.5364C90.3626 33.9444 90.8862 34.2223 91.4562 34.335C92.0262 34.4477 92.6171 34.3901 93.1542 34.1695C93.6913 33.9489 94.1504 33.5752 94.4736 33.0956C94.7968 32.6161 94.9696 32.0522 94.97 31.4752C94.9663 31.1897 94.9197 30.9063 94.832 30.6344L98.1847 27.305C99.278 28.1405 100.549 28.7166 101.902 28.989C103.254 29.2614 104.651 29.2229 105.986 28.8766C107.321 28.5302 108.558 27.8851 109.603 26.9906C110.648 26.0962 111.473 24.9762 112.014 23.7164C112.556 22.4567 112.8 21.0905 112.727 19.7227C112.655 18.3549 112.268 17.0217 111.596 15.8252C110.925 14.6288 109.986 13.6008 108.853 12.8201C107.719 12.0393 106.42 11.5265 105.056 11.321ZM103.666 24.792C103.047 24.8089 102.43 24.7024 101.853 24.4787C101.275 24.255 100.749 23.9186 100.304 23.4895C99.8602 23.0605 99.5071 22.5473 99.2659 21.9805C99.0248 21.4136 98.9005 20.8045 98.9005 20.1892C98.9005 19.5739 99.0248 18.9648 99.2659 18.3979C99.5071 17.831 99.8602 17.3179 100.304 16.8888C100.749 16.4598 101.275 16.1234 101.853 15.8997C102.43 15.676 103.047 15.5695 103.666 15.5864C104.867 15.6282 106.005 16.1309 106.84 16.9889C107.675 17.8468 108.142 18.9929 108.142 20.1858C108.143 21.3787 107.677 22.5252 106.843 23.384C106.009 24.2428 104.872 24.7467 103.671 24.7896" fill="white"/>
</g>
<defs>
<clipPath id="clip0_1094_7884">
<rect width="124" height="36" fill="white"/>
</clipPath>
</defs>
</svg>
